X: 43602
T: Young Tom Ennis
R: jig
M: 6/8
K: Adorian
|:c2c BcB|AGE GAB|c2c Bed|BAA A2B|
cBc BcB|AGE GAB|cde ded|BAA A3:|
|:gfe age|dBG GBd|gfe agf|efg a3|
gfe age|dBG GAB|cBA Bed|BAA A3:|

